;FLAVOR:RepRap
;TIME:2036
;Filament used: 1.43752m, 0.493197m
;Layer height: 0.2
;Generated with Cura_SteamEngine 3.4.1
T0
M190 S65
M104 S200
M104 T1 S200
M109 S200
M109 T1 S200
M82 ;absolute extrusion mode
M203 Z24000
G28 ;Home
G1 X0 Y-130 Z0.3 F8000 ;Move the platform down 15mm
G92 E0
G1 E160 F5000
G92 E0
G1 Z5
G1 F200 E3
G92 E0
G92 E0
G1 F4800 E-5
;LAYER_COUNT:37
;LAYER:0
M107
M203 Z21000
G0 F21000 X37.236 Y-9.89 Z0.3
;TYPE:SKIRT
G1 F4800 E0.08315
G1 F1800 X38.106 Y-6.922 E0.27603
G1 X38.22 Y-6.393 E0.30978
G1 X38.497 Y-4.439 E0.43285
G1 X38.523 Y-4.201 E0.44778
G1 X38.718 Y-1.668 E0.60622
G1 X38.728 Y-1.451 E0.61976
G1 X38.756 Y0.032 E0.71226
G1 X38.737 Y0.489 E0.74079
G1 X38.054 Y7.087 E1.15446
G1 X37.993 Y7.478 E1.17914
G1 X37.527 Y9.678 E1.31938
G1 X37.452 Y9.971 E1.33824
G1 X36.776 Y12.242 E1.48601
G1 X36.706 Y12.454 E1.49993
G1 X36.117 Y14.073 E1.60737
G1 X35.905 Y14.55 E1.63992
G1 X34.179 Y17.8 E1.86941
G1 X32.799 Y20.625 E2.06548
G1 X32.524 Y21.098 E2.0996
G1 X31.353 Y22.808 E2.22885
G1 X31.185 Y23.034 E2.24641
G1 X29.2 Y25.511 E2.44436
G1 X28.904 Y25.839 E2.47192
G1 X27.918 Y26.809 E2.55817
G1 X27.794 Y26.925 E2.56876
G1 X23.14 Y31.107 E2.95896
G1 X22.75 Y31.414 E2.98991
G1 X20.804 Y32.744 E3.13691
G1 X20.526 Y32.917 E3.15733
G1 X17.284 Y34.74 E3.38928
G1 X16.707 Y35.003 E3.42882
G1 X13.377 Y36.192 E3.64933
G1 X10.351 Y37.389 E3.85227
G1 X9.851 Y37.547 E3.88497
G1 X7.99 Y37.996 E4.00436
G1 X7.761 Y38.044 E4.01895
G1 X5.601 Y38.425 E4.15573
G1 X5.389 Y38.456 E4.16909
G1 X3.516 Y38.677 E4.28671
G1 X2.977 Y38.702 E4.32036
G1 X-.404 Y38.611 E4.53128
G1 X-3.824 Y38.635 E4.74457
G1 X-4.354 Y38.601 E4.77769
G1 X-6.412 Y38.322 E4.90721
G1 X-6.634 Y38.285 E4.92124
G1 X-8.708 Y37.876 E5.05307
G1 X-8.925 Y37.826 E5.06696
G1 X-10.726 Y37.358 E5.18301
G1 X-11.233 Y37.187 E5.21637
G1 X-14.322 Y35.892 E5.42526
G1 X-17.562 Y34.658 E5.64147
G1 X-17.996 Y34.46 E5.67122
G1 X-19.092 Y33.874 E5.74873
G1 X-19.296 Y33.757 E5.76339
G1 X-21.677 Y32.285 E5.93796
G1 X-21.884 Y32.147 E5.95348
G1 X-23.493 Y30.998 E6.07678
G1 X-23.869 Y30.691 E6.10705
G1 X-28.896 Y26.013 E6.53529
G1 X-29.219 Y25.672 E6.56458
G1 X-30.67 Y23.935 E6.70573
G1 X-30.852 Y23.699 E6.72431
G1 X-32.662 Y21.144 E6.91958
G1 X-32.959 Y20.648 E6.95563
G1 X-36.335 Y13.868 E7.42797
G1 X-36.527 Y13.406 E7.45917
G1 X-37.206 Y11.415 E7.59036
G1 X-37.282 Y11.165 E7.60665
G1 X-37.94 Y8.681 E7.7669
G1 X-37.989 Y8.472 E7.78029
G1 X-38.268 Y7.107 E7.86717
G1 X-38.332 Y6.662 E7.89521
G1 X-38.865 Y0.146 E8.30292
G1 X-38.876 Y-.23 E8.32638
G1 X-38.832 Y-2.578 E8.47284
G1 X-38.801 Y-2.994 E8.49885
G1 X-38.272 Y-7.038 E8.75319
G1 X-38.131 Y-7.677 E8.794
G1 X-37.104 Y-10.943 E9.00751
G1 X-36.204 Y-14.197 E9.21806
G1 X-36.005 Y-14.747 E9.25454
G1 X-34.876 Y-17.234 E9.42486
G1 X-34.754 Y-17.477 E9.44182
G1 X-33.506 Y-19.769 E9.60457
G1 X-33.417 Y-19.925 E9.61577
G1 X-29.719 Y-26.005 E10.05956
G1 X-27.19 Y-30.789 E10.39703
G1 X-24.897 Y-35.792 E10.74024
G1 X-23.912 Y-38.204 E10.90272
G1 X-22.047 Y-43.397 E11.24682
G1 X-20.503 Y-48.602 E11.5854
G1 X-19.238 Y-53.957 E11.92854
G1 X-18.632 Y-57.221 E12.13557
G1 X-18.615 Y-57.306 E12.14098
G1 X-18.195 Y-59.309 E12.26861
G1 X-18.109 Y-59.642 E12.29006
G1 X-17.432 Y-61.841 E12.43354
G1 X-17.155 Y-62.506 E12.47847
G1 X-15.774 Y-65.089 E12.66113
G1 X-15.367 Y-65.699 E12.70686
G1 X-13.505 Y-67.97 E12.89
G1 X-12.978 Y-68.495 E12.93639
G1 X-10.656 Y-70.393 E13.12342
G1 X-10.045 Y-70.8 E13.1692
G1 X-7.48 Y-72.165 E13.3504
G1 X-6.804 Y-72.444 E13.39601
G1 X-4.004 Y-73.291 E13.57844
G1 X-3.288 Y-73.434 E13.62397
G1 X-.391 Y-73.721 E13.80552
G1 X0.354 Y-73.72 E13.85198
G1 X3.356 Y-73.418 E14.04014
G1 X4.076 Y-73.274 E14.08593
G1 X6.85 Y-72.427 E14.26681
G1 X7.526 Y-72.145 E14.31249
G1 X10.107 Y-70.762 E14.4951
G1 X10.717 Y-70.354 E14.54087
G1 X12.981 Y-68.493 E14.72363
G1 X13.497 Y-67.977 E14.76914
G1 X15.362 Y-65.707 E14.95235
G1 X15.772 Y-65.095 E14.99829
G1 X17.154 Y-62.511 E15.18104
G1 X17.436 Y-61.83 E15.227
G1 X18.289 Y-59.016 E15.41038
G1 X18.398 Y-58.551 E15.44016
G1 X18.622 Y-57.221 E15.52427
G1 X19.772 Y-51.395 E15.89461
G1 X20.406 Y-48.804 E16.06096
G1 X21.93 Y-43.549 E16.40218
G1 X23.741 Y-38.416 E16.74163
G1 X25.845 Y-33.382 E17.08188
G1 X28.212 Y-28.506 E17.41989
G1 X30.885 Y-23.718 E17.76187
G1 X33.443 Y-19.602 E18.06408
G1 X33.592 Y-19.339 E18.08293
G1 X35.126 Y-16.361 E18.29184
G1 X35.226 Y-16.15 E18.3064
G1 X35.845 Y-14.738 E18.40255
G1 X35.893 Y-14.625 E18.4102
G1 X36.155 Y-13.97 E18.4542
G1 X36.305 Y-13.511 E18.48431
G1 X37.236 Y-9.89 E18.71747
G0 F21000 X36.757 Y-9.745
G1 F1800 X37.626 Y-6.781 E18.9101
G1 X37.725 Y-6.323 E18.93932
G1 X38.002 Y-4.369 E19.06239
G1 X38.024 Y-4.162 E19.07537
G1 X38.219 Y-1.629 E19.23381
G1 X38.228 Y-1.441 E19.24554
G1 X38.256 Y0.042 E19.33805
G1 X38.24 Y0.438 E19.36276
G1 X37.557 Y7.036 E19.77643
G1 X37.503 Y7.374 E19.79778
G1 X37.037 Y9.574 E19.93802
G1 X36.973 Y9.828 E19.95435
G1 X36.297 Y12.099 E20.10212
G1 X36.236 Y12.283 E20.11421
G1 X35.647 Y13.902 E20.22165
G1 X35.463 Y14.315 E20.24984
G1 X33.748 Y17.546 E20.47796
G1 X32.35 Y20.406 E20.67649
G1 X32.112 Y20.815 E20.706
G1 X30.941 Y22.525 E20.83525
G1 X30.795 Y22.721 E20.85049
G1 X28.81 Y25.198 E21.04844
G1 X28.553 Y25.483 E21.07238
G1 X27.567 Y26.453 E21.15863
G1 X27.46 Y26.553 E21.16777
G1 X22.806 Y30.735 E21.55796
G1 X22.468 Y31.001 E21.58479
G1 X20.522 Y32.331 E21.73178
G1 X20.281 Y32.481 E21.74948
G1 X17.039 Y34.304 E21.98144
G1 X16.539 Y34.532 E22.01571
G1 X13.2 Y35.724 E22.23681
G1 X10.167 Y36.924 E22.44022
G1 X9.733 Y37.061 E22.4686
G1 X7.872 Y37.51 E22.58799
G1 X7.675 Y37.552 E22.60055
G1 X5.515 Y37.933 E22.73733
G1 X5.331 Y37.96 E22.74893
G1 X3.458 Y38.181 E22.86654
G1 X2.99 Y38.202 E22.89576
G1 X-.394 Y38.111 E23.10687
G1 X-3.828 Y38.135 E23.32103
G1 X-4.287 Y38.106 E23.34971
G1 X-6.345 Y37.827 E23.47923
G1 X-6.537 Y37.795 E23.49137
G1 X-8.611 Y37.386 E23.6232
G1 X-8.799 Y37.343 E23.63523
G1 X-10.6 Y36.875 E23.75127
G1 X-11.04 Y36.726 E23.78024
G1 X-14.162 Y35.417 E23.99136
G1 X-17.384 Y34.19 E24.20637
G1 X-17.76 Y34.019 E24.23213
G1 X-18.856 Y33.433 E24.30963
G1 X-19.033 Y33.331 E24.32237
G1 X-21.414 Y31.859 E24.49694
G1 X-21.594 Y31.74 E24.5104
G1 X-23.203 Y30.591 E24.6337
G1 X-23.528 Y30.325 E24.65989
G1 X-28.555 Y25.647 E25.08813
G1 X-28.835 Y25.352 E25.1135
G1 X-30.286 Y23.615 E25.25464
G1 X-30.444 Y23.41 E25.27078
G1 X-32.254 Y20.855 E25.46605
G1 X-32.511 Y20.425 E25.49729
G1 X-35.887 Y13.645 E25.96963
G1 X-36.054 Y13.245 E25.99666
G1 X-36.733 Y11.254 E26.12785
G1 X-36.799 Y11.037 E26.14199
G1 X-37.457 Y8.553 E26.30224
G1 X-37.499 Y8.372 E26.31383
G1 X-37.778 Y7.007 E26.40072
G1 X-37.833 Y6.621 E26.42503
G1 X-38.366 Y0.105 E26.83274
G1 X-38.376 Y-.221 E26.85308
G1 X-38.332 Y-2.569 E26.99954
G1 X-38.306 Y-2.93 E27.02211
G1 X-37.777 Y-6.974 E27.27645
G1 X-37.654 Y-7.527 E27.31178
G1 X-36.622 Y-10.808 E27.52628
G1 X-35.722 Y-14.063 E27.73688
G1 X-35.549 Y-14.54 E27.76853
G1 X-34.42 Y-17.027 E27.93886
G1 X-34.315 Y-17.238 E27.95355
G1 X-33.067 Y-19.53 E28.1163
G1 X-32.99 Y-19.665 E28.126
G1 X-29.287 Y-25.754 E28.57043
G1 X-26.733 Y-30.585 E28.91121
G1 X-24.453 Y-35.559 E29.25244
G1 X-23.443 Y-38.031 E29.41897
G1 X-21.571 Y-43.243 E29.76434
G1 X-20.017 Y-48.487 E30.10543
G1 X-18.749 Y-53.853 E30.44928
G1 X-18.14 Y-57.13 E30.65714
G1 X-18.126 Y-57.203 E30.66178
G1 X-17.706 Y-59.206 E30.78941
G1 X-17.631 Y-59.495 E30.80803
G1 X-16.954 Y-61.694 E30.95151
G1 X-16.714 Y-62.27 E30.99043
G1 X-15.333 Y-64.853 E31.17309
G1 X-14.98 Y-65.382 E31.21275
G1 X-13.118 Y-67.653 E31.39589
G1 X-12.662 Y-68.108 E31.43607
G1 X-10.34 Y-70.006 E31.62309
G1 X-9.81 Y-70.359 E31.6628
G1 X-7.245 Y-71.724 E31.84401
G1 X-6.659 Y-71.966 E31.88354
G1 X-3.859 Y-72.813 E32.06597
G1 X-3.238 Y-72.936 E32.10545
G1 X-.341 Y-73.223 E32.287
G1 X0.304 Y-73.223 E32.32723
G1 X3.306 Y-72.921 E32.51538
G1 X3.93 Y-72.795 E32.55508
G1 X6.704 Y-71.948 E32.73596
G1 X7.29 Y-71.705 E32.77553
G1 X9.871 Y-70.322 E32.95813
G1 X10.4 Y-69.968 E32.99783
G1 X12.664 Y-68.107 E33.1806
G1 X13.111 Y-67.659 E33.22006
G1 X14.976 Y-65.389 E33.40328
G1 X15.331 Y-64.859 E33.44306
G1 X16.713 Y-62.275 E33.6258
G1 X16.957 Y-61.685 E33.66562
G1 X17.81 Y-58.871 E33.84899
G1 X17.905 Y-58.468 E33.87482
G1 X18.13 Y-57.13 E33.95943
G1 X19.282 Y-51.29 E34.33065
G1 X19.919 Y-48.689 E34.49764
G1 X21.454 Y-43.396 E34.84133
G1 X23.275 Y-38.235 E35.18263
G1 X25.384 Y-33.187 E35.52381
G1 X27.78 Y-28.253 E35.86587
G1 X30.451 Y-23.467 E36.20767
G1 X33.018 Y-19.338 E36.51087
G1 X33.147 Y-19.11 E36.52721
G1 X34.681 Y-16.132 E36.73612
G1 X34.769 Y-15.949 E36.74878
G1 X35.388 Y-14.537 E36.84493
G1 X35.429 Y-14.439 E36.85155
G1 X35.691 Y-13.784 E36.89555
G1 X35.821 Y-13.386 E36.92166
G1 X36.757 Y-9.745 E37.1561
G1 F4800 E32.1561
G1 F21000 Z1.6
G0 X33.284 Y-4.344 Z1.6
;TYPE:WALL-INNER
G1 F21000 Z0.3
G1 F4800 E37.23925
G1 F1800 X33.198 Y-4.91 E37.27495
G1 X33.159 Y-5.174 E37.2916
G1 X33.425 Y-5.195 E37.30215
G1 X33.858 Y-5.231 E37.32925
G1 X33.939 Y-4.66 E37.36522
G1 X33.975 Y-4.398 E37.38171
G1 X33.711 Y-4.378 E37.3922
G1 X33.284 Y-4.344 E37.41891
G0 F21000 X32.815 Y-4.099
;TYPE:WALL-OUTER
G1 F1800 X32.612 Y-5.452 E37.50423
G1 X32.606 Y-5.492 E37.50676
G1 X32.659 Y-5.539 E37.51117
G1 X32.757 Y-5.598 E37.51831
G1 X32.867 Y-5.639 E37.52563
G1 X32.994 Y-5.662 E37.53368
G1 X33.034 Y-5.665 E37.53618
G1 X33.969 Y-5.742 E37.59469
G1 X34.099 Y-5.741 E37.60279
G1 X34.236 Y-5.709 E37.61157
G1 X34.294 Y-5.685 E37.61548
G1 X34.416 Y-4.883 E37.66607
G1 X34.517 Y-4.118 E37.71419
G1 X34.523 Y-4.07 E37.71721
G1 X34.393 Y-3.979 E37.72711
G1 X34.316 Y-3.946 E37.73233
G1 X34.149 Y-3.91 E37.74298
G1 X34.101 Y-3.907 E37.74598
G1 X33.119 Y-3.83 E37.80741
G1 X33.05 Y-3.834 E37.81172
G1 X32.954 Y-3.854 E37.81784
G1 X32.835 Y-3.902 E37.82584
G1 X32.815 Y-4.099 E37.83819
G0 F21000 X32.778 Y-4.346
G0 X33.323 Y-4.426
G1 F4800 E32.83819
G1 F21000 Z1.6
G0 X33.548 Y-1.178 Z1.6
;TYPE:WALL-INNER
G1 F21000 Z0.3
G1 F4800 E37.92134
G1 F1800 X33.974 Y-1.214 E37.948
G1 X34.238 Y-1.235 E37.96452
G1 X34.242 Y-.971 E37.97498
G1 X34.243 Y-.97 E37.97507
G1 X34.256 Y-.391 E38.01118
G1 X33.831 Y-.355 E38.03778
G1 X33.568 Y-.334 E38.05424
G1 X33.563 Y-.597 E38.06467
G1 X33.562 Y-.598 E38.06476
G1 X33.548 Y-1.178 E38.10094
G0 F21000 X33.053 Y-1.071
;TYPE:WALL-OUTER
G1 F1800 X33.029 Y-1.532 E38.12973
G1 X33.057 Y-1.556 E38.13203
G1 X33.138 Y-1.603 E38.13787
G1 X33.241 Y-1.642 E38.14473
G1 X33.332 Y-1.661 E38.15053
G1 X34.283 Y-1.74 E38.21004
G1 X34.332 Y-1.744 E38.21311
G1 X34.456 Y-1.741 E38.22084
G1 X34.567 Y-1.717 E38.22793
G1 X34.724 Y-1.643 E38.23875
G1 X34.725 Y-1.593 E38.24187
G1 X34.741 Y-1.178 E38.26777
G1 X34.764 Y-0.016 E38.34025
G1 X34.675 Y0.037 E38.34671
G1 X34.581 Y0.071 E38.35294
G1 X34.403 Y0.098 E38.36417
G1 X33.519 Y0.172 E38.41949
G1 X33.478 Y0.175 E38.42205
G1 X33.346 Y0.172 E38.43029
G1 X33.26 Y0.156 E38.43574
G1 X33.114 Y0.102 E38.44545
G1 X33.067 Y0.076 E38.4488
G1 X33.067 Y0.034 E38.45142
G1 X33.068 Y-.374 E38.47686
G1 X33.053 Y-1.071 E38.52034
G0 F21000 X33.04 Y-1.321
G0 X33.607 Y-1.132
G1 F4800 E33.52034
G1 F21000 Z1.6
G0 X32.604 Y8.003 Z1.6
;TYPE:WALL-INNER
G1 F21000 Z0.3
G1 F4800 E38.60349
G1 F1800 X32.734 Y7.445 E38.63922
G1 X32.794 Y7.188 E38.65568
G1 X33.047 Y7.262 E38.66613
G1 X33.461 Y7.385 E38.69307
G1 X33.327 Y7.945 E38.72898
G1 X33.326 Y7.946 E38.72906
G1 X33.266 Y8.202 E38.74546
G1 X33.014 Y8.126 E38.7559
G1 X32.604 Y8.003 E38.7826
G0 F21000 X32.076 Y8.063
;TYPE:WALL-OUTER
G1 F1800 X32.297 Y7.124 E38.84275
G1 X32.378 Y6.733 E38.86766
G1 X32.387 Y6.688 E38.87052
G1 X32.447 Y6.666 E38.8745
G1 X32.565 Y6.644 E38.88199
G1 X32.684 Y6.646 E38.88941
G1 X32.801 Y6.669 E38.89685
G1 X32.845 Y6.681 E38.89969
G1 X33.749 Y6.948 E38.95847
G1 X33.872 Y6.999 E38.96678
G1 X33.976 Y7.067 E38.97453
G1 X34.031 Y7.118 E38.97921
G1 X33.936 Y7.552 E39.00691
G1 X33.671 Y8.656 E39.07772
G1 X33.66 Y8.702 E39.08067
G1 X33.564 Y8.735 E39.087
G1 X33.49 Y8.745 E39.09165
G1 X33.383 Y8.745 E39.09833
G1 X33.252 Y8.72 E39.10664
G1 X33.206 Y8.707 E39.10962
G1 X32.256 Y8.421 E39.17149
G1 X32.197 Y8.394 E39.17554
G1 X32.118 Y8.343 E39.1814
G1 X32.025 Y8.253 E39.18948
G1 X32.076 Y8.063 E39.20174
G0 F21000 X32.133 Y7.82
G0 X32.668 Y7.947
G1 F4800 E34.20174
G1 F21000 Z1.6
G0 X31.704 Y11.054 Z1.6
;TYPE:WALL-INNER
G1 F21000 Z0.3
G1 F4800 E39.28489
G1 F1800 X32.115 Y11.175 E39.31161
G1 X32.369 Y11.249 E39.32811
G1 X32.279 Y11.498 E39.3386
G1 X32.083 Y12.038 E39.37443
G1 X31.673 Y11.919 E39.40105
G1 X31.419 Y11.845 E39.41755
G1 X31.508 Y11.596 E39.42803
G1 X31.704 Y11.054 E39.46397
G0 F21000 X31.204 Y10.972
;TYPE:WALL-OUTER
G1 F1800 X31.348 Y10.537 E39.49255
G1 X31.482 Y10.507 E39.50111
G1 X31.594 Y10.509 E39.5081
G1 X31.673 Y10.523 E39.5131
G1 X32.597 Y10.795 E39.57317
G1 X32.648 Y10.81 E39.57648
G1 X32.758 Y10.855 E39.5839
G1 X32.848 Y10.915 E39.59064
G1 X32.931 Y10.992 E39.5977
G1 X32.968 Y11.042 E39.60158
G1 X32.951 Y11.093 E39.60493
G1 X32.818 Y11.482 E39.63057
G1 X32.42 Y12.573 E39.703
G1 X32.379 Y12.584 E39.70564
G1 X32.284 Y12.591 E39.71158
G1 X32.164 Y12.582 E39.71909
G1 X31.187 Y12.297 E39.78256
G1 X31.143 Y12.285 E39.7854
G1 X31.033 Y12.24 E39.79281
G1 X30.892 Y12.144 E39.80345
G1 X30.848 Y12.1 E39.80733
G1 X30.806 Y12.042 E39.8118
G1 X30.822 Y12 E39.8146
G1 X30.967 Y11.628 E39.8395
G1 X31.204 Y10.972 E39.883
G0 F21000 X31.282 Y10.735
G0 X31.742 Y11.116
G1 F4800 E34.883
G1 F21000 Z1.6
G0 X27.506 Y19.275 Z1.6
;TYPE:WALL-INNER
G1 F21000 Z0.3
G1 F4800 E39.96615
G1 F1800 X27.832 Y18.799 E40.00212
G1 X27.833 Y18.798 E40.00221
G1 X27.981 Y18.581 E40.01859
G1 X28.189 Y18.742 E40.02904
G1 X28.527 Y19.003 E40.05567
G1 X28.202 Y19.479 E40.09162
G1 X28.054 Y19.697 E40.10805
G1 X27.845 Y19.536 E40.11851
G1 X27.506 Y19.275 E40.14519
G0 F21000 X26.995 Y19.137
;TYPE:WALL-OUTER
G1 F1800 X27.54 Y18.341 E40.20535
G1 X27.757 Y18.004 E40.23035
G1 X27.781 Y17.967 E40.2331
G1 X27.844 Y17.968 E40.23703
G1 X27.961 Y17.99 E40.24445
G1 X28.071 Y18.034 E40.25184
G1 X28.177 Y18.1 E40.25963
G1 X28.212 Y18.127 E40.26239
G1 X28.965 Y18.709 E40.32174
G1 X29.048 Y18.787 E40.32884
G1 X29.126 Y18.893 E40.33705
G1 X29.157 Y18.959 E40.34159
G1 X28.706 Y19.635 E40.39227
G1 X28.279 Y20.249 E40.43891
G1 X28.241 Y20.304 E40.44308
G1 X28.144 Y20.3 E40.44914
G1 X28.048 Y20.277 E40.45529
G1 X27.939 Y20.232 E40.46265
G1 X27.885 Y20.198 E40.46663
G1 X27.832 Y20.158 E40.47077
G1 X27.082 Y19.579 E40.52985
G1 X27.001 Y19.503 E40.53678
G1 X26.944 Y19.428 E40.54266
G1 X26.877 Y19.296 E40.55189
G1 X26.995 Y19.137 E40.56424
G0 F21000 X27.136 Y18.931
G0 X27.589 Y19.242
G1 F4800 E35.56424
G1 F21000 Z1.6
G0 X25.568 Y21.79 Z1.6
;TYPE:WALL-INNER
G1 F21000 Z0.3
G1 F4800 E40.64739
G1 F1800 X25.907 Y22.052 E40.6741
G1 X26.116 Y22.214 E40.6906
G1 X25.942 Y22.413 E40.70109
G1 X25.563 Y22.846 E40.73697
G1 X25.225 Y22.585 E40.7636
G1 X25.017 Y22.424 E40.78001
G1 X25.19 Y22.225 E40.79048
G1 X25.568 Y21.79 E40.82642
G0 F21000 X25.131 Y21.534
;TYPE:WALL-OUTER
G1 F1800 X25.421 Y21.18 E40.85496
G1 X25.535 Y21.194 E40.86212
G1 X25.618 Y21.223 E40.8676
G1 X25.757 Y21.304 E40.87764
G1 X26.499 Y21.877 E40.9361
G1 X26.547 Y21.914 E40.93988
G1 X26.646 Y22.016 E40.94874
G1 X26.696 Y22.09 E40.95431
G1 X26.738 Y22.186 E40.96085
G1 X26.751 Y22.238 E40.96419
G1 X26.712 Y22.284 E40.96795
G1 X26.451 Y22.593 E40.99318
G1 X25.684 Y23.467 E41.06569
G1 X25.575 Y23.441 E41.07268
G1 X25.494 Y23.409 E41.07811
G1 X25.378 Y23.336 E41.08666
G1 X24.618 Y22.749 E41.14655
G1 X24.562 Y22.705 E41.15099
G1 X24.498 Y22.64 E41.15668
G1 X24.44 Y22.558 E41.16294
G1 X24.389 Y22.451 E41.17033
G1 X24.369 Y22.392 E41.17422
G1 X24.417 Y22.339 E41.17868
G1 X24.673 Y22.06 E41.20229
G1 X25.131 Y21.534 E41.24579
G0 F21000 X25.289 Y21.341
G0 X25.581 Y21.863
G1 F4800 E36.24579
G1 F21000 Z1.6
G0 X18.685 Y27.939 Z1.6
;TYPE:WALL-INNER
G1 F21000 Z0.3
G1 F4800 E41.32894
G1 F1800 X19.011 Y27.716 E41.35357
G1 X19.062 Y27.682 E41.35739
G1 X19.373 Y27.459 E41.38126
G1 X19.388 Y27.483
G1 X19.42 Y27.536 E41.38478
G1 X19.734 Y28.055 E41.42261
G1 X19.26 Y28.382 E41.45852
G1 X19.042 Y28.532 E41.47503
G1 X18.906 Y28.305 E41.48551
G1 X18.685 Y27.939 E41.51218
